!!!!SEGMENT: pl-kk--kk-i-389--001-002_kottritsch-franciszek--missa-no-1-kyrie.krn
!!!cenid: 17xx:2453
!!!COM: Kottritsch, Franciszek
!!!COM-rismID: pe30040598
!!!CDT: ~1727-1787
!!!CNT:
!!!OPR: [Missa] No. 1.
!!!OTL: Kyrie
!!!OMV: 002
!!!PDT:
!!!AGN: Sacred; Mass
!!!YEC: Copyright 2022 Narodowy Instytut Fryderyka Chopina (https://polishscores.org)
!!!YEM: License CC-BY-4.0 (https://creativecommons.org/licenses/by/4.0)
!!!SMS-siglum: PL-Kk
!!!SMS-shelfmark: Kk.I.389
!!!SMS-variant:
!!!SMS-altvar:
!!!SMS-shelfwork: 001-002 M
!!!NIFC-rismSourceID: 1001146182
!!!NIFC-rismChildID: 1001146200
!!!NIFC-islandoraID: pl-kk:6976
!!!URL-pdf-islandora: https://repozytorium.nifc.pl/islandora/object/pl-kk%3A6976/datastream/PDF/view
!!!URL-scan: https://polish.musicsources.pl/pl/lokalizacje/galeria/rekopisy/5999/1 @EN{Scan on Polish Music Sources Website} @PL{Skany w portalu Dziedzictwo Muzyki Polskiej w otwartym dostępie}
!!!IIIF:
!!!ONB-nifc: UWAGA: S – skan 1-3, A – 20-22, T – 39-41 , B – 58-60. Części Mszy: Rorate, Kyrie, Gloria, Graduale, Sanctus, Benedictus, Agnus, Dona.
!!!OMD:
!!!AIN: 1 alto 1 bass 1 soprn 1 tenor
!!!key: C
**kern	**text	**kern	**text	**kern	**text	**kern	**text
*part4	*part4	*part3	*part3	*part2	*part2	*part1	*part1
*staff4	*staff4	*staff3	*staff3	*staff2	*staff2	*staff1	*staff1
*ICvox	*	*ICvox	*	*ICvox	*	*ICvox	*
*Ibass	*	*Itenor	*	*Ialto	*	*Isoprn	*
*I"Basso.	*	*I"Tenore.	*	*I"Alto.	*	*I"Soprano.	*
*clefF4	*	*clefC4	*	*clefC3	*	*clefC1	*
*k[]	*	*k[]	*	*k[]	*	*k[]	*
*C:	*	*C:	*	*C:	*	*C:	*
*M3/2	*	*M3/2	*	*M3/2	*	*M3/2	*
=1	=1	=1	=1	=1	=1	=1	=1
*4\right	*	*	*	*2\right	*	*2\right	*
4C\	Ky-	2.G/	Ky-	2.e\	Ky-	2.cc\	Ky-
4E\	.	.	.	.	.	.	.
4G\	.	.	.	.	.	.	.
*	*	*	*	*4\right	*	*4\right	*
4E\	-ri-	4G/	-ri-	4e\	-ri-	4cc\	-ri-
4C\	-e	4G/	-e	4e\	-e	4cc\	-e
4E\	e-	4G/	e-	4e\	e-	4cc\	e-
=2	=2	=2	=2	=2	=2	=2	=2
*2\right	*	*	*	*	*	*	*
2G\	-lei-	2G/	-lei-	4e\	-le-	4cc\	-le-
.	.	.	.	4d\	-i-	4b\	-i-
!	!	!	!	!	!	!LO:N:vis=2.b	!
1GG	-son,	1G	-son	1d	-son,	1b	-son,
=3	=3	=3	=3	=3	=3	=3	=3
*	*	*2\right	*	*	*	*	*
4G\	Ky-	2.B\	Ky-	2.f\	Ky-	2.dd\	Ky-
4D\	.	.	.	.	.	.	.
4BB\	.	.	.	.	.	.	.
*	*	*4\right	*	*	*	*	*
4D\	-ri-	4B\	-ri-	4f\	-ri-	4dd\	-ri-
4G\	-e	4B\	-e	4f\	-e	4dd\	-e
4F\	e-	4B\	e-	4f\	e-	4dd\	e-
=4	=4	=4	=4	=4	=4	=4	=4
4E\	-le-	2G/	-lei-	4f\	-le-	4dd\	-le-
4D\	-i-	.	.	4e\	-i-	4cc\	-i-
1C	-son,	1G	-son,	1e	-son	1cc	-son
=5	=5	=5	=5	=5	=5	=5	=5
4C/	Ky-	4c\	Ky-	4g\	Ky-	4ee\	Ky-
4C/	-ri-	4c\	-ri-	4e\	-ri-	4cc\	-ri-
!LO:LB:g=original	!	!	!	!	!	!LO:LB:g=original	!
=-	=-	=-	=-	=-	=-	=-	=-
4F\	-e	4c\	-e	4a\	-e	4ff\	-e
4E\	e-	4c\	e-	4g\	e-	4ee\	e-
4F\	-le-	4B\	-le-	4f\	-le-	4dd\	-le-
4F#X\	-i-	4c\	-i-	4e\	-i-	4cc\	-i-
!	!	!LO:LB:g=original	!	!LO:LB:g=original	!	!	!
=6	=6	=6	=6	=6	=6	=6	=6
1G	-son,	1G	-son,	1d	-son,	1b	-son,
2r	.	2r	.	2r	.	2r	.
=7	=7	=7	=7	=7	=7	=7	=7
1G	Chri-	1B	Chri-	1g	Chri-	1dd	Chri-
4G\	-ste	4B\	-ste	4g\	-ste	4dd\	-ste
4G\	e-	4B\	e-	4g\	e-	4dd\	e-
=8	=8	=8	=8	=8	=8	=8	=8
4G\	-le-	4B\	-le-	4g\	-le-	2dd\	-lei-
4A\	-i-	4c\	-i-	4f#X\	-i-	.	.
1A	-son	1c	-son	1f#	-son	1dd	-son
=9	=9	=9	=9	=9	=9	=9	=9
4B\	Chri-	4G/	Chri-	1fn	Chri-	1dd	Chri-
4G\	.	4B/	.	.	.	.	.
4B\	-ste	4G/	-ste	.	.	.	.
4d\	e-	4B/	.	.	.	.	.
4B\	.	4G/	e-	4f\	-ste	4dd\	-ste
4G\	.	4B/	.	4f\	e-	4dd\	e-
=10	=10	=10	=10	=10	=10	=10	=10
2c\	-le-	2G/	-lei-	4f\	-le-	4dd\	-le-
.	.	.	.	4e\	-i	4cc\	-i
2G\	-i-	1G	-son	1e	son	1cc	son
2C/	-son	.	.	.	.	.	.
!LO:LB:g=original	!	!	!	!	!	!	!
=11	=11	=11	=11	=11	=11	=11	=11
1G	chri-	1B	Chri-	1f	Chri-	1dd	Chri-
4c\	-ste	4G/	-ste	4e\	-ste	4cc\	-ste
4c\	e-	4G/	e-	4e\	e-	4cc\	e-
!	!	!	!	!	!	!LO:LB:g=original	!
=12	=12	=12	=12	=12	=12	=12	=12
1.G	-le-	2d\	-le-	2d\	-le-	2b\	-le-
.	.	2c\	-i-	2e\	-i-	2cc\	-i-
.	.	2B\	-son	2f\	-son	2dd\	-son
!	!	!LO:LB:g=original	!	!LO:LB:g=original	!	!	!
=13	=13	=13	=13	=13	=13	=13	=13
2E\	.	2G/	chri-	2e\	Chri-	2cc\	Chri-
2D\	-i-	2B\	-ste	2f\	.	2dd\	.
2C/	-son	2c\	e-	2g\	-ste	2ee\	-ste
=14	=14	=14	=14	=14	=14	=14	=14
2F\	e-	2d\	-le-	4a\	e-	4ff\	e-
.	.	.	.	4f\	.	4dd\	.
2G\	-le-	1G	-i-	2e\	-le-	2cc\	-le-
2GG/	-i-	.	.	2d\	-i-	2b\	-i-
=15	=15	=15	=15	=15	=15	=15	=15
1C	-son.	1G	-son.	1e	-son,	1cc	-son,
!LO:TX:b:i:t=Volti Subitto.	!	!LO:TX:b:i:t=Volti Subitto.	!	!LO:TX:b:i:t=Volti Subitto.	!	!LO:TX:b:i:t=Volti Subitto.	!
2r	.	2r	.	2r	.	2r	.
!LO:PB:g=original	!	!LO:PB:g=original	!	!LO:PB:g=original	!	!LO:PB:g=original	!
=16	=16	=16	=16	=16	=16	=16	=16
2.G\	Ky-	2.B\	Ky-	2.g\	Ky-	2.dd\	Ky-
4G\	-ri-	4B\	-ri-	4g\	-ri-	4dd\	-ri-
4G\	-e	4B\	-e	4g\	-e	4dd\	-e
4G\	e-	4B\	e-	4g\	e-	4dd\	e-
=17	=17	=17	=17	=17	=17	=17	=17
4G\	-le-	4B\	-le-	4g\	-le-	2dd\	-lei-
4A\	-i-	4c\	-i-	4f#X\	-i-	.	.
1A	-son,	1c	-son	1f#	-son	1dd	-son,
=18	=18	=18	=18	=18	=18	=18	=18
4B\	Ky-	4G\	Ky-	2.fn\	Ky-	2.dd\	Ky-
4G\	.	4B\	.	.	.	.	.
4B\	.	4G\	-ri-	.	.	.	.
4d\	-ri-	4B\	.	4f\	-ri-	4dd\	-ri-
4B\	-e	4G\	-e	4f\	-e	4dd\	-e
4G\	e-	4B\	e-	4f\	e-	4dd\	e-
=19	=19	=19	=19	=19	=19	=19	=19
2c\	-le-	2G/	-lei-	4f\	-le-	4dd\	-le-
.	.	.	.	4e\	-i-	4cc\	-i-
2G\	-i-	1G	-son,	1e	-son	1cc	-son,
2C/	-son,	.	.	.	.	.	.
=20	=20	=20	=20	=20	=20	=20	=20
2.G\	Ky-	2.B\	Ky-	2.f\	Ky-	2.dd\	Ky-
4G\	-ri-	4B\	-ri-	4f\	-ri-	4dd\	-ri-
4c\	-e	4G/	-e	4e\	-e	4cc\	-e
4c\	e-	4G/	e-	4e\	e-	4cc\	e-
!	!	!	!	!	!	!LO:LB:g=original	!
=21	=21	=21	=21	=21	=21	=21	=21
1.G	-lei-	2d\	-le-	2d\	-le-	2b\	-le-
!	!	!LO:LB:g=original	!	!	!	!	!
=-	=-	=-	=-	=-	=-	=-	=-
.	.	2c\	.	2e\	.	2cc\	-i-
.	.	2B\	-i-	2f\	.	2dd\	-son
!LO:LB:g=original	!	!	!	!LO:LB:g=original	!	!	!
=22	=22	=22	=22	=22	=22	=22	=22
2E\	-son	2G/	-son	2e\	.	2cc\	e-
2D\	.	2B\	.	2f\	.	2dd\	.
2C/	e-	2c\	e-	2g\	-i-	2ee\	.
=23	=23	=23	=23	=23	=23	=23	=23
2F\	-le-	2d\	-le-	4a\	-son	4ff\	-le-
.	.	.	.	4f\	e-	4dd\	.
2G\	.	1G	-i-	2e\	-le-	2cc\	.
2GG/	-i-	.	.	2d\	-i-	2b\	-i-
=24	=24	=24	=24	=24	=24	=24	=24
1C	-son	1G	-son	1e	-son	1cc	-son
2C/	e-	2G/	e-	2e\	e-	2cc\	e-
=25	=25	=25	=25	=25	=25	=25	=25
1.C	-lei-	1.A	-lei-	1.f	-lei-	1.cc	-lei-
=26	=26	=26	=26	=26	=26	=26	=26
!LO:N:vis=2.C/	!	!	!	!	!	!	!
1.C/	-son.	1G	-son.	1e	-son.	1.cc	-son.
.	.	.	.	.	.	.	.
.	.	2r	.	2r	.	.	.
==	==	==	==	==	==	==	==
*-	*-	*-	*-	*-	*-	*-	*-
!!!system-decoration: [(s1,s2,s3,s4)]
!!!ENC: Filip Voros
!!!END: 2023-11-03
!!!EED: Marta Chmielewska
!!!EEV: 2023-11-26
